!!!!SEGMENT: pl-kk--kk-i-28--002_anonim--missa-de-adventu-domini-et-in-terra.krn
!!!cenid: 17xx:2224
!!!COM: Anonim
!!!COM-rismid: pe30004985
!!!CDT:
!!!CNT:
!!!OPR: Missa De Adventu Domini
!!!OTL: Et in terra
!!!OMV: 002
!!!PDT:
!!!AGN: Sacred; Mass
!!!SMS-siglum: PL-Kk
!!!SMS-shelfmark: Kk.I.28
!!!SMS-shelfwork: 001-002 M
!!!SMS-variant: Baſso:PL-KK I 28, f. 9r-10r (skany 0016-0017);
!!!SMS-altvar: Baſso:PL-KK I 28, f. 11v-12v (skany 0020-0021);
!!!NIFC-rismid: 1001156098
!!!URL-scan: http://repozytorium.nifc.pl/skany/pl-kk-nut--i-28
!!!ONB-nifc: UWAGA: części Mszy: 1. Kyrie, 2. Et in terra, 3. Sanctus, 4. Agnus Dei.
**kern	**text	**kern	**text	**kern	**text	**kern	**text
*part4	*part4	*part3	*part3	*part2	*part2	*part1	*part1
*staff4	*staff4	*staff3	*staff3	*staff2	*staff2	*staff1	*staff1
*Iempty	*	*Itenor	*	*Ialto	*	*Ivox	*
*I"Baſso	*	*I"Tenore	*	*I"Alto.	*	*I"Canto.	*
*I'B	*	*I'T	*	*I'A	*	*I'S	*
*clefF4	*	*clefC4	*	*clefC3	*	*clefC1	*
*k[b-]	*	*k[b-]	*	*k[b-]	*	*k[b-]	*
*F:	*	*F:	*	*F:	*	*F:	*
*M2/1	*	*M2/1	*	*M2/1	*	*M2/1	*
*met(c|)	*	*met(c|)	*	*met(c|)	*	*met(c|)	*
*2\right	*	*2\right	*	*2\right	*	*2\right	*
=1	=1	=1	=1	=1	=1	=1	=1
!!LO:TX:t=P:problem:w paru taktach bardzo słabe wyświetlanie spowodowane różnym rozmieszczeniem kresek taktowych w poszczególnych księgach głosowych
!LO:TX:t=P:problem:bemole:BB-,B-	!	!LO:TX:t=T.	!	!	!	!	!
1.F	Et	4c\	Et	2.A/	Et	2.f/	Et
.	.	4B-\	.	.	.	.	.
.	.	4A/	.	.	.	.	.
!	!	!	!	!	!	!LO:TX:t=P:problem:kreska pseudotaktowa	!
.	.	4G/	.	4B-/	in	4g\	in
.	.	2F/	.	2c\	ter-	4a\	ter-
.	.	.	.	.	.	4b-\	.
!	!	!LO:TX:t=P:problem:kreska pseudotaktowa	!	!LO:TX:t=P:problem:kreska pseudotaktowa	!	!LO:TX:t=P:problem:kreska pseudotaktowa	!
2E\	in	2G/	in	2c\	-ra	[2cc\	.
=2	=2	=2	=2	=2	=2	=2	=2
!LO:TX:t=P:problem:kreska pseudotaktowa	!	!	!	!	!	!	!
1D	ter-	2A/	ter-	(2f\	pax	2cc]	.
!	!	!LO:TX:t=P:problem:kreska pseudotaktowa	!	!	!	!	!
.	.	2F/	-ra	2d\)	.	2bn\	-ra
!LO:TX:t=P:problem:kreska pseudotaktowa	!	!	!	!LO:TX:t=P:problem:kreska pseudotaktowa	!	!LO:TX:t=P:problem:kreska pseudotaktowa	!
1C	-ra	2G/	pax	1e	.	1cc	pax
.	.	4c\	ho-	.	.	.	.
.	.	4B-\	.	.	.	.	.
=3	=3	=3-	=3	=3	=3	=3	=3
4F\	pax	4A/	.	2r	.	4a\	pax
4E\	.	4G/	.	.	.	4b-\	.
!	!	!LO:TX:t=P:problem:kreska pseudotaktowa	!	!	!	!	!
4D/	.	[2F/	.	4f\	ho-	4cc\	.
!LO:TX:t=P:problem:kreska pseudotaktowa	!	!	!	!	!	!LO:TX:t=P:problem:kreska pseudotaktowa	!
4C/	.	.	.	4e\	.	4a\	.
2BB-/	.	4F/]	.	2d\	.	2b-\	.
.	.	4G/	.	.	.	.	.
!LO:TX:t=P:problem:kreska pseudotaktowa	!	!LO:TX:t=P:problem:kreska pseudotaktowa	!	!LO:TX:t=P:problem:kreska pseudotaktowa	!	!LO:TX:t=P:problem:kreska pseudotaktowa	!
2AA/	ho-	2A\	.	2c\	.	2f/	ho-
=4	=4	=4	=4	=4	=4	=4	=4
2.GG/	-mi-	2B-\	-mi-	2.d\	-mi-	2.b-\	-mi-
.	.	2G/	-ni-	.	.	.	.
!LO:TX:t=P:problem:kreska pseudotaktowa	!	!	!	!	!	!LO:TX:t=P:problem:kreska pseudotaktowa	!
4GG/	-ni-	.	.	4e\	-ni-	4b-\	-ni-
!	!	!LO:TX:t=P:problem:kreska pseudotaktowa	!	!LO:TX:t=P:problem:kreska pseudotaktowa	!	!	!
2FF,/	-b(us)	1c	-b(us)	1f	-b(us)	2a\	-bus
2.F\	bo-	.	.	.	.	2.a\	bo-
=5-	=5	=5	=5	=5	=5	=5-	=5
.	.	2r	.	2r	.	.	.
4E\	.	.	.	.	.	(4g\	.
4F\	.	2A\	bo-	2f\	bo-	4a\)	.
!LO:TX:t=P:problem:kreska pseudotaktowa	!	!	!	!	!	!LO:TX:t=P:problem:kreska pseudotaktowa	!
4G\	.	.	.	.	.	4b-\	.
2.A\	.	2.c\	-nae	4e\	-nae	2a\	-nae
.	.	.	.	4d\	.	.	.
!	!	!	!	!	!	!LO:TX:t=P:problem:kreska pseudotaktowa	!
!	!	!	!	!	!	!LO:SIC:v:t=custos:cc	!
.	.	.	.	4e\	.	2r	.
!LO:TX:t=P:problem:kreska pseudotaktowa	!	!LO:TX:t=P:problem:kreska pseudotaktowa	!	!	!	!	!
4G\	-nae	4B-\	.	8f\L	vo-	.	.
.	.	.	.	8g\J	.	.	.
!	!	!	!	!	!	!LO:PB:g=original	!
=6	=6	=6	=6	=6-	=6	=6	=6
2F\	vo-	4A\	vo-	2a\	.	2r	.
.	.	4B-\	-lun-	.	.	.	.
!LO:TX:t=P:problem:kreska pseudotaktowa	!	!	!	!LO:TX:t=P:problem:kreska pseudotaktowa	!	!LO:TX:t=P:problem:kreska pseudotaktowa	!
2E\	-lun-	1c\	-ta-	2g\	-lun-	2cc\	Vo-
!LO:TX:t=P:problem:kreska pseudotaktowa	!	!	!	!	!	!	!
1G	-ta-	.	.	1g	-ta-	2dd\	-lun-
!	!	!LO:TX:t=P:problem:kreska pseudotaktowa	!	!	!	!LO:TX:t=P:problem:kreska pseudotaktowa	!
.	.	2Bn\	-tis	.	.	2dd\	-ta-
=7	=7	=7	=7	=7	=7	=7	=7
2C,/	-tis	2c,\	.	2e,\	-tis	2cc,\	-tis
!	!	!	!	!	!	!LO:TX:t=P:problem:kreska pseudotaktowa	!
2C/	Lau-	2c\	Lau-	2e\	Lau-	2g/	Lau-
2BBn/	-da-	2d\	-da-	2d\	-da-	2g\	-da-
!LO:TX:t=P:problem:kreska pseudotaktowa	!	!LO:TX:t=P:problem:kreska pseudotaktowa	!	!LO:TX:t=P:problem:kreska pseudotaktowa	!	!LO:TX:t=P:problem:kreska pseudotaktowa	!
2C/	-m(us)	2c\	-m(us)	2e\	-m(us)	2g\	-m(us)
=8	=8	=8	=8	=8	=8	=8	=8
2GG,/	Te	2B-\	Te	2d\	Te	2g\	Te
1G\	be-	1B-\	be-	4B-/	.	1g\	be-
.	.	.	.	4c/	.	.	.
.	.	.	.	4d\	be-	.	.
.	.	.	.	4e\	.	.	.
!	!	!	!	!LO:TX:t=P:problem:kreska pseudotaktowa	!	!	!
!LO:TX:t=P:problem:kreska pseudotaktowa	!	!LO:TX:t=P:problem:kreska pseudotaktowa	!	!LO:SIC:v:t=custos:g	!	!LO:TX:t=P:problem:kreska pseudotaktowa	!
2F\	-ne-	2A\	-ne-	2f\	-ne-	2a\	-ne-
!	!	!LO:LB:g=original	!	!LO:LB:g=original	!	!	!
=9	=9	=9	=9	=9	=9	=9	=9
2E-X\	-di-	2G/	-di-	2g\	-di-	2b-\	-di-
!	!	!	!	!	!	!LO:TX:t=P:problem:kreska pseudotaktowa	!
2D\	-ci-	2B-\	-ci-	2f\	-ci-	2b-\	-ci-
!LO:TX:t=P:problem:kreska pseudotaktowa	!	!	!	!	!	!	!
!LO:SIC:v:t=custos:BB-	!	!LO:TX:t=P:problem:kreska pseudotaktowa	!	!LO:TX:t=P:problem:kreska pseudotaktowa	!	!	!
1F	-mus	1c	-m(us)	1f	-m(us)	(2b-\	-mus
!	!	!	!	!	!	!LO:TX:t=P:problem:kreska pseudotaktowa	!
.	.	.	.	.	.	2a\)	.
!LO:PB:g=original	!	!	!	!	!	!	!
=10	=10	=10	=10	=10	=10	=10	=10
2BB-,/	Te	2d,\	Te	2f\	Te	2b-\	Te
1B-\	a-	1d\	a-	1f\	a-	1b-\	a-
.	-do-	.	.	.	.	.	.
!LO:TX:t=P:problem:kreska pseudotaktowa	!	!	!	!	!	!LO:TX:t=P:problem:kreska pseudotaktowa	!
2G\	-ra-	4en\	-do-	4g\	-do-	2b-\	-do-
!	!	!LO:TX:t=P:problem:kreska pseudotaktowa	!	!LO:TX:t=P:problem:kreska pseudotaktowa	!	!	!
.	.	4d\	.	4f\	-ra-	.	.
=11	=11	=11	=11	=11	=11	=11	=11
!	!	!	!	!	!	!LO:TX:t=P:problem:kreska pseudotaktowa	!
2.A\	-m(us)	2d\	-ra-	1e	-m(us)	1a	-ra-
.	.	2c#X\	-mus	.	.	.	.
4A\	.	.	.	.	.	.	.
2D,\	Te	2d\	Te	2d,\	.	2a,\	-mus
!LO:TX:t=P:problem:kreska pseudotaktowa	!	!	!	!	!	!LO:TX:t=P:problem:kreska pseudotaktowa	!
[2BB-/	glo-	2B-X\	glo-	2f\	glo-	2dd\	glo-
=12	=12	=12-	=12	=12-	=12	=12	=12
2BB-]	-ri-	2B-\	-ri-	2f\	-ri-	2dd\	-ri-
!	!	!LO:TX:t=P:problem:kreska pseudotaktowa	!	!LO:TX:t=P:problem:kreska pseudotaktowa	!	!LO:TX:t=P:problem:kreska pseudotaktowa	!
!	!	!LO:SIC:v:s=2cn\	!	!	!	!	!
2AA/	-fi-	2c#\	-fi-	2e\	-fi-	2cc\	-fi-
!LO:TX:t=P:problem:kreska pseudotaktowa	!	!	!	!	!	!	!
1BB-	-ca-	1d	-ca-	4d\	-ca-	2.b-\	-ca-
.	.	.	.	4e\	.	.	.
.	.	.	.	1f\	.	.	.
!	!	!	!	!	!	!LO:TX:t=P:problem:kreska pseudotaktowa	!
.	.	.	.	.	.	4a\	.
=13	=13	=13-	=13	=13-	=13	=13	=13
2.C/	.	2c\	.	.	.	2.g/	.
.	.	2c\	-m(us)	2e\	-mus	.	.
!	!	!	!	!	!	!LO:TX:t=P:problem:kreska pseudotaktowa	!
4C/	-m(us)	.	.	.	.	4g/	-m(us)
!	!	!	!	!	!	!LO:TX:t=P:problem:kreska pseudotaktowa	!
!LO:TX:t=P:problem:kreska pseudotaktowa	!	!LO:TX:t=P:problem:kreska pseudotaktowa	!	!LO:TX:t=P:problem:kreska pseudotaktowa	!	!LO:SIC:v:t=custos:a	!
1FF	Te.	1c	Te.	1f,	Te	1a	Te.
!	!	!	!	!	!	!LO:LB:g=original	!
=14	=14	=14	=14	=14	=14	=14	=14
2.F\	Gra-	1A	Gra-	1c	Gra-	2.a\	Gra-
!	!	!	!	!	!	!LO:TX:t=P:problem:kreska pseudotaktowa	!
4E\	.	.	.	.	.	4g/	.
2D/	.	2B-\	-ti-	2d\	-ti-	2f/	-ti-
!	!	!LO:TX:t=P:problem:kreska pseudotaktowa	!	!LO:TX:t=P:problem:kreska pseudotaktowa	!	!	!
4BB-/	-ti-	2B-\	-as	2d\	-as	2g/	-as
!LO:TX:t=P:problem:kreska pseudotaktowa	!	!	!	!	!	!	!
4BB-/	-as	.	.	.	.	.	.
=15	=15	=15	=15	=15	=15	=15	=15
1F	a-	1c	a-	2.f\	a-	2.a\	a-
!	!	!	!	!	!	!LO:TX:t=P:problem:kreska pseudotaktowa	!
.	.	.	.	4g\	-gi-	4b-\	.
!	!	!LO:TX:t=P:problem:kreska pseudotaktowa	!	!	!	!	!
2D\	-gi-	1d	-gi-	2a\	-m(us)	2cc\	.
!LO:TX:t=P:problem:kreska pseudotaktowa	!	!	!	!LO:TX:t=P:problem:kreska pseudotaktowa	!	!LO:TX:t=P:problem:kreska pseudotaktowa	!
2G\	-mus	.	.	2g\	Ti-	2bn\	-gi-
=16	=16	=16	=16	=16	=16	=16	=16
4C/	Ti-	1e-X	-m(us)	2g\	-bi	4cc\	-mus
4D/	.	.	.	.	.	8b-\L	.
.	.	.	.	.	.	8a\J	.
!	!	!	!	!LO:TX:t=P:problem:kreska pseudotaktowa	!	!	!
4E-X\	.	.	.	2r	.	4g/	.
!	!	!	!	!	!	!LO:TX:t=P:problem:kreska pseudotaktowa	!
4F\	.	.	.	.	.	4a/	Ti-
4G\	.	1d	Ti-	2r	.	2b-,\	-bi
4A\	.	.	.	.	.	.	.
!	!	!	!	!	!	!LO:TX:t=P:problem:kreska pseudotaktowa	!
1B-\	.	.	.	2g\	a-	2b-\	a-
=17-	=17	=17-	=17	=17-	=17	=17	=17
.	.	1c	.	2g\	-gi-	2e/	-gi-
!LO:TX:t=P:problem:kreska pseudotaktowa	!	!	!	!	!	!LO:TX:t=P:problem:kreska pseudotaktowa	!
2A\	.	.	.	1f\	-m(us)	2a\	-m(us)
!	!	!LO:TX:t=P:problem:kreska pseudotaktowa	!	!LO:TX:t=P:problem:kreska pseudotaktowa	!	!	!
1G	.	1B-	-bi	.	.	2b-\	Ti-
!	!	!	!	!LO:TX:t=P:problem:kreska pseudotaktowa	!	!	!
.	.	.	.	2e\	Ti-	4a/	.
!	!	!	!	!	!	!LO:TX:t=P:problem:kreska pseudotaktowa	!
.	.	.	.	.	.	4g/	.
=18-	=18	=18	=18	=18	=18	=18	=18
2F,\	-bi	2r	.	2f\	-bi	2a,\	-bi
1D\	pro-	1d\	pro-	1f\	pro-	1a\	pro-
.	.	.	.	.	.	.	.
!LO:TX:t=P:problem:kreska pseudotaktowa	!	!	!	!LO:TX:t=P:problem:kreska pseudotaktowa	!	!LO:TX:t=P:problem:kreska pseudotaktowa	!
2C#X/	-pter	2A\	-pter	2e\	-pter	2a\	-pter
!LO:LB:g=original	!	!	!	!LO:LB:g=original	!	!	!
=19	=19	=19-	=19	=19	=19	=19	=19
2D/	ma-	2A/	ma-	2f\	ma-	4f/	ma-
.	.	.	.	.	.	4g/	.
!	!	!LO:TX:t=P:problem:kreska pseudotaktowa	!	!	!	!	!
!LO:TX:t=P:problem:kreska pseudotaktowa	!	!LO:SIC:v:t=custos:b-	!	!	!	!LO:TX:t=P:problem:kreska pseudotaktowa	!
2AA/	-gnam	2A/	-gna(m)	2e\	-gnam	2a\	.
!	!	!LO:LB:g=original	!	!	!	!	!
4BB-/	glo-	1.B-	glo-	4d\	glo-	2f/	-gnam
4AA/	.	.	.	4c/	.	.	.
!	!	!	!	!	!	!LO:TX:t=P:problem:kreska pseudotaktowa	!
4GG/	.	.	.	4B-/	.	2r	.
!	!	!	!	!LO:TX:t=P:problem:kreska pseudotaktowa	!	!	!
4AA/	.	.	.	4c/	.	.	.
!	!	!	!	!	!	!	!
=20-	=20	=20-	=20	=20	=20	=20	=20
4BB-/	.	.	.	4d\	.	2r	.
4C/	.	.	.	4e\	.	.	.
4D\	.	4A/	-ri-	2.f\	.	4cc\	glo-
!LO:TX:t=P:problem:kreska pseudotaktowa	!	!LO:TX:t=P:problem:kreska pseudotaktowa	!	!	!	!LO:TX:t=P:problem:kreska pseudotaktowa	!
4E\	-ri-	4G/	-am	.	.	4b-\	.
2.F\	-am	2.A\	.	.	.	2a\	-ri-
.	.	.	.	8e\L	.	.	.
.	.	.	.	8d\J	.	.	.
.	.	.	.	4c/	.	4g/	-am
!	!	!	!	!LO:TX:t=P:problem:kreska pseudotaktowa	!	!LO:TX:t=P:problem:kreska pseudotaktowa	!
8E\L	.	4B-\	.	4d/	.	4f/	.
8D\J	.	.	.	.	.	.	.
=21-	=21	=21	=21	=21	=21	=21	=21
!LO:TX:t=P:problem:kreska pseudotaktowa	!	!LO:TX:t=P:problem:kreska pseudotaktowa	!	!	!	!LO:TX:t=P:problem:kreska pseudotaktowa	!
1C	tu-	1c	Tu-	4e\	-ri-	1g	tu-
.	.	.	.	2f\	-am	.	.
.	.	.	.	4e\	tu-	.	.
2FF,/	-am	2c,\	-am	2f\	-am	2a\	-am
!	!	!	!	!	!	!LO:TX:t=P:problem:kreska pseudotaktowa	!
1F\	tu-	2.A/	Do-	2.c\	Do-	2r	.
=22-	=22	=22-	=22	=22-	=22	=22	=22
.	.	.	.	.	.	00r	.
.	.	4A/	-mi-	4c\	-mi-	.	.
!LO:TX:t=P:problem:kreska pseudotaktowa	!	!LO:TX:t=P:problem:kreska pseudotaktowa	!	!LO:TX:t=P:problem:kreska pseudotaktowa	!	!	!
2D\	.	2B-\	-ne	2d\	-ne	.	.
2C,/	-am	2c\	De-	4e\	De-	.	.
.	.	.	.	4d\	.	.	.
2.C/	Do-	4B-\	-(us)	4e\	.	.	.
.	.	4A\	.	4f\	.	.	.
=23	=23	=23-	=23	=23	=23	=23-	=23
.	.	2G/	Rex	2g\	-us	.	.
4C/	-mi-	.	.	.	.	.	.
!LO:TX:t=P:problem:kreska pseudotaktowa	!	!LO:TX:t=P:problem:kreska pseudotaktowa	!	!LO:TX:t=P:problem:kreska pseudotaktowa	!	!	!
2D\	-ne	2B-\	cae-	2f\	.	.	.
!	!	!	!	!	!	!LO:TX:t=P:problem:kreska pseudotaktowa	!
2E\	De-	2.c\	-le-	2e\	Rex	.	.
!	!	!	!	!	!	!	!
2C/	-(us)	.	.	2g\	cae-	.	.
.	.	4B-\	.	.	.	.	.
!	!	!	!	!	!	!LO:LB:g=original	!
=24-	=24	=24-	=24	=24	=24	=24	=24
!	!	!	!	!LO:TX:t=P:problem:kreska pseudotaktowa	!	!	!
2.F\	Rex	2A\	.	1c	-les-	2.f/	Do-
!	!	!LO:TX:t=P:problem:kreska pseudotaktowa	!	!	!	!	!
.	.	2c\	.	.	.	.	.
!LO:TX:t=P:problem:kreska pseudotaktowa	!	!	!	!	!	!LO:TX:t=P:problem:kreska pseudotaktowa	!
4E\	.	.	.	.	.	4f/	-mi-
2D/	cae-	2F/	.	2d,\	-tis	2f/	-ne
!	!	!	!	!	!	!LO:TX:t=P:problem:kreska pseudotaktowa	!
2C/	-le-	2c\	-stis	2e\	Rex	2g\	.
=25-	=25	=25-	=25	=25	=25	=25	=25
!LO:TX:t=P:problem:kreska pseudotaktowa	!	!	!	!	!	!	!
1F	.	0F	Rex	2.f\	cae-	2a\	De-
.	.	.	.	.	.	4f/	-us
!	!	!	!	!	!	!LO:TX:t=P:problem:kreska pseudotaktowa	!
.	.	.	.	8e\L	.	4g/	.
!	!	!	!	!LO:TX:t=P:problem:kreska pseudotaktowa	!	!	!
.	.	.	.	8d\J	.	.	.
!	!	!LO:TX:t=P:problem:kreska pseudotaktowa	!	!	!	!	!
2FF,/	-stis	.	.	0c	-les-	2a\	Rex
1F\	Rex	.	.	.	.	4cc\	cae-
!	!	!	!	!	!	!LO:TX:t=P:problem:kreska pseudotaktowa	!
.	.	.	.	.	.	4b-\	.
=26-	=26	=26	=26	=26-	=26	=26	=26
.	.	2F/	.	.	.	4a\	-le-
.	.	.	.	.	.	4b-\	.
!LO:TX:t=P:problem:kreska pseudotaktowa	!	!	!	!	!	!LO:TX:t=P:problem:kreska pseudotaktowa	!
2C/	cae-	2A/	cae-	.	.	[2cc\	.
!	!	!LO:TX:t=P:problem:kreska pseudotaktowa	!	!	!	!	!
1G	-les-	1G	-les-	1d	-tis	2cc\]	.
!	!	!	!	!	!	!LO:TX:t=P:problem:kreska pseudotaktowa	!
.	.	.	.	.	.	2bn\	.
=27-	=27	=27	=27	=27-	=27	=27	=27
2C,/	-tis	2G,/	-tis	2e\	De-	2cc,\	-stis
1C/	De-	1G/	De-	1e\	-us	1cc\	DE-
.	.	.	.	.	.	.	.
!LO:TX:t=P:problem:kreska pseudotaktowa	!	!	!	!	!	!	!
!LO:SIC:v:t=custos:BB-	!	!	!	!LO:TX:t=P:problem:kreska pseudotaktowa	!	!	!
2AA/	-(us)	2A/	-(us)	2f\	Pa-	2cc\	-(us)
!LO:LB:g=original	!	!	!	!LO:LB:g=original	!	!	!
=28	=28	=28-	=28	=28	=28	=28-	=28
!	!	!LO:TX:t=P:problem:kreska pseudotaktowa	!	!	!	!LO:TX:t=P:problem:kreska pseudotaktowa	!
2BB-/	Pa-	1F	Pa-	1d	-ter	1b-X	Pa-
1BB-/	-ter	.	.	.	.	.	.
.	.	2B-\	-ter	2d\	o-	2b-\	-ter
!LO:TX:t=P:problem:kreska pseudotaktowa	!	!	!	!LO:TX:t=P:problem:kreska pseudotaktowa	!	!LO:TX:t=P:problem:kreska pseudotaktowa	!
2D/	O-	2A\	o-	2f\	.	2f/	om-
=29	=29	=29-	=29	=29	=29	=29	=29
2.C/	-mni-	2.c\	-mni-	2.f\	-mni-	2.g\	-ni-
!	!	!	!	!	!	!LO:TX:t=P:problem:kreska pseudotaktowa	!
4C/	-po-	4c\	-po-	4e\	-po-	4g/	-po-
!	!	!LO:TX:t=P:problem:kreska pseudotaktowa	!	!	!	!	!
!	!	!LO:LB:g=original	!	!	!	!	!
2FF/	-tens	1A	-tens	2f,\	-tens	2f,/	-tens
!LO:TX:t=P:problem:kreska pseudotaktowa	!	!	!	!	!	!	!
2.BB-/	Do-	.	.	2.d\	Do-	2.f/	Do-
=30	=30	=30	=30	=30-	=30	=30-	=30
.	.	00r	.	.	.	.	.
4BB-/	-mi-	.	.	4d\	-mi-	4f/	-mi-
!	!	!	!	!LO:TX:t=P:problem:kreska pseudotaktowa	!	!LO:TX:t=P:problem:kreska pseudotaktowa	!
2AA/	-ne	.	.	2c\	-ne	2f/	-ne
2.B-\	Fi-	.	.	2.d\	Fi-	2.f/	Fi-
!LO:TX:t=P:problem:kreska pseudotaktowa	!	!	!	!	!	!	!
4A\	-li	.	.	4d\	-li	4f/	-li
=31	=31	=31-	=31	=31-	=31	=31	=31
2G\	u-	.	.	2d\	U-	2g\	u-
!	!	!	!	!	!	!LO:TX:t=P:problem:kreska pseudotaktowa	!
!	!	!	!	!LO:TX:t=P:problem:kreska pseudotaktowa	!	!LO:SIC:v:t=custos:b-	!
2F#X\	-ni-	.	.	2d\	-ni-	2a\	-ni-
!	!	!	!	!	!	!LO:LB:g=original	!
2G\	-ge-	.	.	2d\	-ge-	2.b-X\	-ge-
!LO:TX:t=P:problem:kreska pseudotaktowa	!	!	!	!LO:TX:t=P:problem:kreska pseudotaktowa	!	!	!
2GG/	-ni-	.	.	2d\	-ni-	.	.
!	!	!	!	!	!	!LO:TX:t=P:problem:kreska pseudotaktowa	!
.	.	.	.	.	.	4b-\	-ni-
=32	=32	=32-	=32	=32	=32	=32	=32
2D,\	-te	2r	.	2d\	-te	2a,\	-te
!LO:TX:t=P:problem:kreska pseudotaktowa	!	!	!	!LO:TX:t=P:problem:kreska pseudotaktowa	!	!	!
2.D\	Do-	2.f\	Do-	2r	.	2.a\	Do-
!	!	!	!	!LO:TX:t=P:problem:kreska pseudotaktowa	!	!	!
.	.	.	.	00r	.	.	.
4D/	-mi-	4f\	-mi-	.	.	4a\	-mi-
!	!	!LO:TX:t=P:problem:kreska pseudotaktowa	!	!	!	!LO:TX:t=P:problem:kreska pseudotaktowa	!
2C#X/	-ne	2e\	-ne	.	.	2a\	-ne
=33-	=33	=33	=33	=33-	=33	=33	=33
2.D/	Fi-	2.f\	Fi-	.	.	2.a\	Fi-
!LO:TX:t=P:problem:kreska pseudotaktowa	!	!	!	!	!	!LO:TX:t=P:problem:kreska pseudotaktowa	!
4C/	-li	4e\	-li	.	.	4a\	-li
2BB-X/	u-	2d\	u-	.	.	2g\	u-
!LO:TX:t=P:problem:kreska pseudotaktowa	!	!	!	!	!	!LO:TX:t=P:problem:kreska pseudotaktowa	!
2AA/	-ni	2c\	-ni	.	.	2a\	-ni
=34	=34	=34-	=34	=34-	=34	=34	=34
!	!	!LO:TX:t=P:problem:kreska pseudotaktowa	!	!	!	!	!
2.BB-/	ge-	1d	ge-	.	.	2f/	ge-
.	.	.	.	.	.	1b-\	.
!	!	!	!	!	!	!	!
4C/	.	.	.	.	.	.	.
4D\	.	2.c\	.	2r	.	.	.
4E\	.	.	.	.	.	.	.
!	!	!	!	!	!	!LO:TX:t=P:problem:kreska pseudotaktowa	!
4F\	.	.	.	2.f\	JE-	2a\	-ni-
4F\	-ni-	4c\	-ni-	.	.	.	.
!	!	!	!	!	!	!	!
.	.	.	.	.	.	.	.
=35-	=35	=35-	=35	=35-	=35	=35	=35
2BB-,/	-te	0B-	-te	.	.	2b-\	-te
.	.	.	.	4e\	.	.	.
!LO:TX:t=P:problem:kreska pseudotaktowa	!	!	!	!	!	!	!
!LO:SIC:v:t=custos:B-	!	!	!	!	!	!	!
[<2B-\	Je-	.	.	4d\	.	2.dd\	JE-
!	!	!	!	!LO:TX:t=P:problem:kreska pseudotaktowa	!	!	!
.	.	.	.	4c\	.	.	.
!	!	!LO:TX:t=P:problem:kreska pseudotaktowa	!	!	!	!	!
4B]	.	.	.	1d	-SU	.	.
4A\	.	.	.	.	.	4cc\	.
4G\	.	.	.	.	.	4b-\	.
!LO:TX:t=P:problem:kreska pseudotaktowa	!	!	!	!	!	!LO:TX:t=P:problem:kreska pseudotaktowa	!
4F\	.	.	.	.	.	4a\	.
=36	=36	=36	=36	=36-	=36	=36	=36
2.E-X\	.	0r	.	2.g\	JE-	2b-\	.
.	.	.	.	.	.	4cc\	.
!	!	!	!	!	!	!LO:TX:t=P:problem:kreska pseudotaktowa	!
4D/	.	.	.	4f\	.	4dd\	-su
2C/	.	.	.	2.e-X\	.	2g\	.
!LO:TX:t=P:problem:kreska pseudotaktowa	!	!	!	!	!	!	!
2E-X\	-su	.	.	.	.	1cc\	x-
.	.	.	.	8d\L	.	.	.
.	.	.	.	8c\J	.	.	.
=37	=37	=37-	=37	=37-	=37	=37-	=37
!	!	!	!	!LO:TX:t=P:problem:kreska pseudotaktowa	!	!	!
1G	x-	2.G/	Je-	1d	.	.	.
!	!	!	!	!	!	!LO:TX:t=P:problem:kreska pseudotaktowa	!
.	.	.	.	.	.	2bn\	-te
.	.	4F/	.	.	.	.	.
!	!	!	!	!LO:SIC:v:t=custos:c	!	!LO:TX:t=P:problem:kreska pseudotaktowa	!
2C,/	-te	4E/	-su	2en,\	-SU	1cc	.
.	.	4D/	.	.	.	.	.
!	!	!LO:TX:t=P:problem:kreska pseudotaktowa	!	!	!	!	!
!	!	!	!	!LO:LB:g=original	!	!	!
2.c\	JE-	2C/	.	4g\	Je-	.	.
!	!	!	!	!LO:TX:t=P:problem:kreska pseudotaktowa	!	!	!
.	.	.	.	4f\	.	.	.
=38-	=38	=38	=38	=38	=38	=38	=38
.	.	1c	Chri-	4e\	.	2r	.
4B-\	.	.	.	4d\	.	.	.
4A\	.	.	.	4c/	.	2.cc\	Je-
!LO:TX:t=P:problem:kreska pseudotaktowa	!	!	!	!	!	!	!
4G\	.	.	.	4B-/	.	.	.
2.F\	.	2.F/	.	2A/	.	.	.
.	.	.	.	.	.	4b-\	.
!	!	!	!	!LO:TX:t=P:problem:kreska pseudotaktowa	!	!	!
.	.	.	.	2c\	-su	4a\	.
!	!	!	!	!	!	!LO:TX:t=P:problem:kreska pseudotaktowa	!
4E\	.	4G/	.	.	.	4g\	.
=39-	=39	=39-	=39	=39	=39	=39	=39
!	!	!LO:TX:t=P:problem:kreska pseudotaktowa	!	!	!	!	!
2.D\	.	1A	-ste	2.d\	Chri-	2f/	.
.	.	.	.	.	.	4g\	.
!	!	!	!	!	!	!LO:TX:t=P:problem:kreska pseudotaktowa	!
4C/	.	.	.	4e\	.	4a\	.
!	!	!	!	!LO:TX:t=P:problem:kreska pseudotaktowa	!	!	!
2BB-/	-SU	2.d\	Je-	1f	-ste	2.b-\	.
!LO:TX:t=P:problem:kreska pseudotaktowa	!	!	!	!	!	!	!
2AA/	.	.	.	.	.	.	.
!	!	!	!	!	!	!LO:TX:t=P:problem:kreska pseudotaktowa	!
.	.	4c\	.	.	.	4cc\	.
=40	=40	=40	=40	=40	=40	=40	=40
1BB-	x-	4B-/	.	4d\	Je-	4dd\	.
.	.	4A/	.	4e\	.	4cc\	.
.	.	4G/	.	4f\	.	4b-\	.
!	!	!LO:TX:t=P:problem:kreska pseudotaktowa	!	!	!	!LO:TX:t=P:problem:kreska pseudotaktowa	!
.	.	4F/	.	4d\	.	4a\	.
!	!	!	!	!	!	!LO:LB:g=original	!
0C	-te	2E/	-su	2e\	-su	2g/	-su
.	.	2A\	.	1f\	x-	2a,/	.
=41	=41	=41-	=41	=41-	=41	=41-	=41
!LO:TX:t=P:problem:kreska pseudotaktowa	!	!LO:TX:t=P:problem:kreska pseudotaktowa	!	!	!	!	!
.	.	1c	x-	.	.	1g	x-
!	!	!	!	!LO:TX:t=P:problem:kreska pseudotaktowa	!	!	!
.	.	.	.	2e\	-te	.	.
!	!	!	!	!	!	!LO:TX:t=P:problem:kreska pseudotaktowa	!
2FF,/	.	2A,\	-te	2f,\	.	1f	-te
!	!	!LO:TX:t=P:problem:kreska pseudotaktowa	!	!	!	!	!
!	!	!LO:SIC:v:t=custos:a	!	!	!	!	!
2.F\	Do-	2.A\	Do-	2.c/	Do-	.	.
=42-	=42	=42	=42	=42-	=42	=42	=42
!	!	!	!	!	!	!LO:TX:t=P:problem:kreska pseudotaktowa	!
.	.	.	.	.	.	00r	.
!	!	!LO:LB:g=original	!	!	!	!	!
4F\	-mi-	4A/	-mi-	4c/	-mi-	.	.
!	!	!LO:TX:t=P:problem:kreska pseudotaktowa	!	!LO:TX:t=P:problem:kreska pseudotaktowa	!	!	!
2E\	-ne	2G/	-ne	2c\	-ne	.	.
2F\	De-	2A/	De-	2c\	De-	.	.
!	!	!	!	!	!	!	!
2D\	-(us)	2G/	-us	2d\	-us	.	.
=43	=43	=43-	=43	=43-	=43	=43-	=43
2C#X/	a-	2E/	a-	2e\	a-	.	.
!LO:TX:t=P:problem:kreska pseudotaktowa	!	!	!	!	!	!	!
2D\	-gn(us)	1A\	-gnus	2f\	-gn(us)	.	.
!	!	!	!	!LO:TX:t=P:problem:kreska pseudotaktowa	!	!	!
1BB-X	De-	.	.	1d	De-	.	.
!	!	!LO:TX:t=P:problem:kreska pseudotaktowa	!	!	!	!	!
.	.	2G#X/	De-	.	.	.	.
=44-	=44	=44	=44	=44	=44	=44	=44
2AA/	-i.	2A\	-i	2c#X,\	-i	2r	.
!LO:TX:t=P:problem:kreska pseudotaktowa	!	!	!	!	!	!	!
2r	.	2.A\	Do-	2.e\	Do-	2.cc\	Do-
!LO:TX:t=P:problem:kreska pseudotaktowa	!	!	!	!	!	!	!
00r	.	.	.	.	.	.	.
.	.	4A/	-mi-	4e\	-mi-	4cc\	-mi-
!	!	!LO:TX:t=P:problem:kreska pseudotaktowa	!	!LO:TX:t=P:problem:kreska pseudotaktowa	!	!LO:TX:t=P:problem:kreska pseudotaktowa	!
.	.	2G#X/	-ne	2e\	-ne	2bn\	-ne
=45-	=45	=45	=45	=45	=45	=45	=45
.	.	2A/	De-	2e\	De-	2cc\	De-
.	.	2F/	-(us)	2f\	-(us)	2a\	-us
.	.	2E/	a-	2c\	a-	2g/	ag-
!	!	!	!	!	!	!LO:TX:t=P:problem:kreska pseudotaktowa	!
.	.	2F/	-gnus	1c\	-gn(us)	2a\	-n(us)
=46-	=46	=46-	=46	=46-	=46	=46	=46
!	!	!LO:TX:t=P:problem:kreska pseudotaktowa	!	!	!	!	!
.	.	1D	De-	.	.	1f	De-
!	!	!	!	!LO:TX:t=P:problem:kreska pseudotaktowa	!	!	!
.	.	.	.	2Bn/	De-	.	.
!	!	!	!	!LO:LB:g=original	!	!LO:TX:t=P:problem:kreska pseudotaktowa	!
2r	.	4C/	.	2c,\	-i	1e	-i
.	.	4D/	.	.	.	.	.
!LO:LB:g=original	!	!	!	!	!	!	!
!LO:TX:t=P:problem:kreska pseudotaktowa	!	!	!	!	!	!	!
2.C/	Fi-	4E/	.	2.e\	Fi-	.	.
.	.	4F/	.	.	.	.	.
=47	=47	=47-	=47	=47-	=47	=47	=47
.	.	2G/	-i.	.	.	2r	.
4C/	-li-	.	.	4e\	-li-	.	.
!LO:TX:t=P:problem:kreska pseudotaktowa	!	!LO:TX:t=P:problem:kreska pseudotaktowa	!	!LO:TX:t=P:problem:kreska pseudotaktowa	!	!	!
2GG/	-us	2r	.	2a\	-us	2.b-\	Fi-
1BB-	Pa-	1r	.	2f\	Pa-	.	.
.	.	.	.	.	.	4b-\	-li-
!	!	!	!	!LO:TX:t=P:problem:kreska pseudotaktowa	!	!LO:TX:t=P:problem:kreska pseudotaktowa	!
.	.	.	.	2d\	-trs	2f/	-us
=48-	=48	=48	=48	=48	=48	=48	=48
2FF/	-tris	2.A\	Fi-	2r	.	2.a\	Pa-
2.AA/	/Fi-	.	.	2.e\	Fi-	.	.
.	.	4B-\	-li-	.	.	8g/L	.
.	.	.	.	.	.	8f/J	.
.	.	2c#X\	-us	.	.	2e/	.
4AA/	-li-	.	.	4a\	-li-	.	.
!LO:TX:t=P:problem:kreska pseudotaktowa	!	!	!	!	!	!	!
2D\	-us	2.d\	Pa-	2f\	-(us)	4f/	.
.	.	.	.	.	.	4g/	.
=49	=49	=49-	=49	=49-	=49	=49	=49
0AA	Pa-	.	.	1e	Pa-	1a	.
.	.	8c#X\L	.	.	.	.	.
.	.	8B-\J	.	.	.	.	.
!	!	!LO:N:vis=1	!	!	!	!	!
.	.	1c.#X\	.	.	.	.	.
!	!	!	!	!	!	!LO:TX:t=0	!
.	.	.	.	1e	.	0.a;	-tris.
.	.	.	.	.	.	.	.
=50-	=50	=50-	=50	=50	=50	=50	=50
!LO:TX:a:t=P:problem:# above	!	!	!	!	!	!	!
0D	-tris/	0d;	-tris.	0f#X;	-tris.	.	.
.	.	.	.	.	.	.	.
!	!	!LO:LB:g=original	!	!	!	!	!
=51||	=51	=51||	=51	=51||	=51	=51||	=51
*M3/2	*	*M3/2	*	*M3/2	*	*M3/2	*
2F\	Qui	2A\	Qui	2c/	Qui	(4f/	Qui
.	.	.	.	.	.	.	.
.	.	.	.	.	.	.	.
.	.	.	.	.	.	4g/)	.
.	.	.	.	.	.	.	.
.	.	.	.	.	.	.	.
2F\	tol-	2c\	tol-	2f\	tol-	(4a/	tol-
.	.	.	.	.	.	.	.
.	.	.	.	.	.	.	.
.	.	.	.	.	.	4b-/)	.
.	.	.	.	.	.	.	.
.	.	.	.	.	.	.	.
!LO:TX:t=P:problem:kreska pseudotaktowa	!	!LO:TX:t=P:problem:kreska pseudotaktowa	!	!LO:TX:t=P:problem:kreska pseudotaktowa	!	!LO:TX:t=P:problem:kreska pseudotaktowa	!
2E\	-lis	2G/	-lis	2g\	-lis	2cc\	-lis
.	.	.	.	.	.	.	.
.	.	.	.	.	.	.	.
.	.	.	.	.	.	.	.
=52	=52	=52	=52	=52	=52	=52	=52
2F\	pec-	2A/	pec-	2f\	pec-	2a\	pec-
2D\	-ca-	2F/	-ca-	2f\	-ca-	2b-\	-ca-
!LO:TX:t=P:problem:kreska pseudotaktowa	!	!LO:TX:t=P:problem:kreska pseudotaktowa	!	!	!	!LO:TX:t=P:problem:kreska pseudotaktowa	!
2AA/	-ta	2A/	-ta	2f\	-ta	2cc\	-ta
!	!	!	!	!	!	!LO:LB:g=original	!
=53	=53	=53	=53	=53-	=53	=53	=53
1C	mun-	1G	mun-	1en	mun-	1g	mun-
!LO:TX:t=P:problem:kreska pseudotaktowa	!	!LO:TX:t=P:problem:kreska pseudotaktowa	!	!LO:TX:t=P:problem:kreska pseudotaktowa	!	!LO:TX:t=P:problem:kreska pseudotaktowa	!
2C/	-di	2E/	-di	2e\	-di	2g/	-di
=54	=54	=54	=54	=54	=54	=54	=54
2.BBn/	mi-	2.G/	mi-	2.d\	mi-	2.g\	mi-
4BB/	-ſe-	4G/	-ſe-	4d\	-ſe-	4g\	-ſe-
!	!	!LO:TX:t=P:problem:kreska pseudotaktowa	!	!	!	!LO:TX:t=P:problem:kreska pseudotaktowa	!
2BB/	-re-	2G/	-re-	2d\	-re-	2g\	-re-
=55-	=55	=55	=55	=55-	=55	=55	=55
2C/	-re	2G/	-re	1g	-re	2cc\	-re
!LO:TX:t=P:problem:kreska pseudotaktowa	!	!	!	!	!	!LO:TX:t=P:problem:kreska pseudotaktowa	!
1D	no-	1d	no-	.	.	1a	no-
!	!	!	!	!LO:TX:t=P:problem:kreska pseudotaktowa	!	!	!
.	.	.	.	2f#X\	.	.	.
=56	=56	=56-	=56	=56	=56	=56	=56
1GG,	-bis.	1Bn,	-bis.	1g	no-	1g,	-bis
!	!	!LO:TX:t=P:problem:kreska pseudotaktowa	!	!	!	!LO:TX:t=P:problem:kreska pseudotaktowa	!
2G\	Qui	2d\	Qui	2g,\	-bis	2b-X\	Qui
=57-	=57	=57	=57	=57-	=57	=57	=57
2F#X\	tol-	2A/	tol-	2d\	qui	2a\	tol-
2D\	-lis	2F#X/	.	2d\	tol-	2a\	.
!LO:TX:t=P:problem:kreska pseudotaktowa	!	!LO:TX:t=P:problem:kreska pseudotaktowa	!	!LO:TX:t=P:problem:kreska pseudotaktowa	!	!LO:TX:t=P:problem:kreska pseudotaktowa	!
2F#\	pec-	2A/	-lis	2d\	-lis	2a\	-lis
!LO:LB:g=original	!	!	!	!LO:LB:g=original	!	!	!
=58	=58	=58	=58	=58	=58	=58	=58
2.G\	-ca-	2.G/	pec-	1g	pec-	1b-	pec-
4F\	.	4F/	-ca-	.	.	.	.
!	!	!	!	!	!	!LO:TX:t=P:problem:kreska pseudotaktowa	!
2E-X\	-ta	4G/	.	2g\	-ca-	2cc\	-ca-
!	!	!LO:TX:t=P:problem:kreska pseudotaktowa	!	!	!	!	!
.	.	4A/	-ta	.	.	.	.
=59-	=59	=59-	=59	=59-	=59	=59	=59
2D\	mun-	1B-X	mun-	2f\	-ta	2dd\	-ta
!LO:TX:t=P:problem:kreska pseudotaktowa	!	!	!	!LO:TX:t=P:problem:kreska pseudotaktowa	!	!	!
1C	.	.	.	1e-X	mun-	1ee-X	mun-
!	!	!LO:TX:t=P:problem:kreska pseudotaktowa	!	!	!	!	!
.	.	2A\	.	.	.	.	.
=60	=60	=60	=60	=60	=60	=60-	=60
!LO:TX:t=P:problem:kreska pseudotaktowa	!	!	!	!LO:TX:t=P:problem:kreska pseudotaktowa	!	!LO:TX:t=P:problem:kreska pseudotaktowa	!
1.BB-	-di	1.B-	-di.	1.d	-di	1.dd	-di,
=61	=61	=61	=61	=61	=61	=61	=61
!	!	!LO:N:vis=1	!	!LO:N:vis=1	!	!	!
2B-\	Suſ-	1.r	.	1.r	.	2dd\	Suſ-
4B-\	-ci-	.	.	.	.	4dd\	-ci-
4B-\	-pe	.	.	.	.	4dd\	-pe
4A\	de-	.	.	.	.	4cc\	de-
!LO:TX:t=P:problem:kreska pseudotaktowa	!	!	!	!	!	!LO:TX:t=P:problem:kreska pseudotaktowa	!
4A\	-pre-	.	.	.	.	4dd\	-pre-
=62	=62	=62	=62	=62-	=62	=62	=62
2.B-\	-ca-	2d\	Suſ-	2f\	Suſ-	2.b-\	-ca-
.	.	4d\	-ci-	4f\	-ci-	.	.
4B-\	-ti-	4d\	-pe	4f\	-pe	4b-\	-ti-
!LO:TX:t=P:problem:kreska pseudotaktowa	!	!	!	!	!	!LO:TX:t=P:problem:kreska pseudotaktowa	!
2F\	-o-	4c\	de-	4e-X\	de-	2cc\	-o-
!	!	!LO:TX:t=P:problem:kreska pseudotaktowa	!	!LO:TX:t=P:problem:kreska pseudotaktowa	!	!	!
.	.	4d\	-pre-	4f\	-pre-	.	.
=63	=63	=63	=63	=63	=63	=63	=63
!LO:TX:t=P:problem:kreska pseudotaktowa	!	!	!	!	!	!LO:TX:t=P:problem:kreska pseudotaktowa	!
1.BB-	-nem	2.B-\	-ca-	2.d\	-ca-	1.dd,	-nem
.	.	4B-\	-ti-	4e\	-ti-	.	.
!	!	!LO:TX:t=P:problem:kreska pseudotaktowa	!	!LO:TX:t=P:problem:kreska pseudotaktowa	!	!	!
.	.	2A\	-o-	2f\	-o-	.	.
!	!	!LO:PB:g=original	!	!	!	!	!
=64	=64	=64	=64	=64	=64	=64	=64
2G\	Suſ-	2G,/	-nem	2d,\	-nem	2b-\	Suſ-
4G\	-ci-	2G/	de-	2d\	de-	4b-\	-ci-
4G\	-pe	.	.	.	.	4b-\	-pe
!	!	!LO:TX:t=P:problem:kreska pseudotaktowa	!	!LO:TX:t=P:problem:kreska pseudotaktowa	!	!	!
4F#X\	de-	2A/	-pre-	2d\	-pre-	4a\	de-
!	!	!	!	!	!	!	!
!LO:TX:t=P:problem:kreska pseudotaktowa	!	!	!	!	!	!LO:TX:t=P:problem:kreska pseudotaktowa	!
4F#\	-pre-	.	.	.	.	4a\	-pre-
=65	=65	=65	=65	=65	=65	=65	=65
2.G\	-ca-	2.G/	-ca-	2.d\	-ca-	2.b-\	-ca-
4G\	-ti-	4B-\	-ti-	4e-X\	-ti-	4b-\	-ti-
!LO:TX:t=P:problem:kreska pseudotaktowa	!	!	!	!	!	!LO:TX:t=P:problem:kreska pseudotaktowa	!
2D\	-o-	2d\	-o-	2f\	-o-	2a\	-o-
!	!	!	!	!	!	!LO:LB:g=original	!
=66	=66	=66-	=66	=66	=66	=66	=66
2E-X,\	-nem	2B-X\	-nem	1e-X,	-nem	2g/	-nem
2C/	no-	1A	no-	.	.	2g/	no-
!	!	!	!	!	!	!LO:TX:t=P:problem:kreska pseudotaktowa	!
2D\	.	.	.	2d\	no-	2f#X/	.
=67	=67	=67	=67	=67	=67	=67	=67
*M2/2	*	*M2/2	*	*M2/2	*	*M2/2	*
*met(c|)	*	*met(c|)	*	*met(c|)	*	*met(c|)	*
!	!	!	!	!	!	!LO:TX:t=P:problem:kreska pseudotaktowa	!
2G,\	-stram	2G,/	-stram	2d\	-stram	1g	-stram
!	!	!LO:TX:t=P:problem:kreska pseudotaktowa	!	!	!	!	!
2GG/	Qui	2Bn\	Qui	2g\	Qui	.	.
!	!	!	!	!LO:TX:t=P:problem:kreska pseudotaktowa	!	!	!
2AA/	se-	(2c\	se-	1fn	se-	1r	.
!LO:TX:t=P:problem:kreska pseudotaktowa	!	!	!	!	!	!	!
2BBn/	.	2d\)	.	.	.	.	.
=68	=68	=68-	=68	=68	=68	=68-	=68
2C/	-des	2G,/	-des	2e\	-des	2r	.
!LO:SIC:v:t=custos:BB-	!	!LO:TX:t=P:problem:kreska pseudotaktowa	!	!LO:TX:t=P:problem:kreska pseudotaktowa	!	!	!
2C/	qui	2c\	qui	2e\	ad	2.g\	Qui
!LO:LB:g=original	!	!	!	!	!	!	!
2BB-/	se-	(2d\	se-	2f\	dex-	.	.
.	.	.	.	.	.	4a\	.
!LO:TX:t=P:problem:kreska pseudotaktowa	!	!LO:TX:t=P:problem:kreska pseudotaktowa	!	!	!	!LO:TX:t=P:problem:kreska pseudotaktowa	!
2GG/	.	2e\)	.	2g\	-te-	2b-\	se-
=69	=69	=69	=69	=69-	=69	=69	=69
2FF,/	-des	2f,\	-des	2c/	-ra(m)	2a,\	-des
!	!	!	!	!	!	!LO:TX:t=P:problem:kreska pseudotaktowa	!
2F\	qui	2f\	ad	2r	.	2a\	qui
!	!	!LO:TX:t=P:problem:kreska pseudotaktowa	!	!	!	!	!
!	!	!	!	!LO:PB:g=original	!	!	!
2G\	se-	1e-X	dex-	1r	.	(2b-\	se-
!LO:TX:t=P:problem:kreska pseudotaktowa	!	!	!	!	!	!LO:TX:t=P:problem:kreska pseudotaktowa	!
2A\	.	.	.	.	.	2cc\)	.
=70	=70	=70	=70	=70-	=70	=70	=70
2B-\	-des	2d\	-te-	2r	.	2f,/	-des
!	!	!LO:TX:t=P:problem:kreska pseudotaktowa	!	!LO:TX:t=P:problem:kreska pseudotaktowa	!	!LO:TX:t=P:problem:kreska pseudotaktowa	!
2A\	ad	2A\	-ram	2c\	ad	2f/	ad
2.G\	dex-	2.B-\	Pa-	(2.d\	dex-	2.g\	dex-
!	!	!	!	!	!	!LO:TX:t=P:problem:kreska pseudotaktowa	!
4F\	-te-	4A/	.	8e\L)	-te-	4a\	-te-
.	.	.	.	8f\J	.	.	.
=71	=71	=71-	=71	=71	=71	=71	=71
2E-X\	-ram	2G/	.	2g\	-ram	2b-\	-ram
!	!	!	!	!	!	!LO:TX:t=P:problem:kreska pseudotaktowa	!
4D/	.	2.c\	.	4f\	.	2g/	.
!LO:TX:t=P:problem:kreska pseudotaktowa	!	!	!	!LO:TX:t=P:problem:kreska pseudotaktowa	!	!	!
4C/	.	.	.	4e\	.	.	.
!	!	!	!	!	!	!LO:TX:t=P:problem:kreska pseudotaktowa	!
1G	Pa-	.	.	1d	Pa-	1g	Pa-
.	.	8B-\L	.	.	.	.	.
.	.	8A\J	.	.	.	.	.
!	!	!LO:TX:t=P:problem:kreska pseudotaktowa	!	!	!	!	!
.	.	2Bn\	.	.	.	.	.
=72-	=72	=72	=72	=72-	=72	=72	=72
2C,/	-tris	2c\	-tris	2e,\	-tris	2g,\	-tris
1C/	mi-	1c\	mi-	1e\	mi-	1g\	mi-
.	.	.	.	.	.	.	.
!LO:TX:t=P:problem:kreska pseudotaktowa	!	!LO:TX:t=P:problem:kreska pseudotaktowa	!	!LO:TX:t=P:problem:kreska pseudotaktowa	!	!LO:TX:t=P:problem:kreska pseudotaktowa	!
2BBn/	-ſe-	2d\	-ſe-	2d\	-ſe-	2g/	-ſe-
!	!	!LO:LB:g=original	!	!	!	!	!
=73	=73	=73	=73	=73	=73	=73	=73
2C/	-re-	2c\	-re-	2e\	-re-	2g\	-re-
!	!	!	!	!	!	!	!
!	!	!	!	!	!	!LO:TX:t=P:problem:kreska pseudotaktowa	!
2AA/	-re	2c\	-re	2f\	-re	2a\	.
4GG/	no-	1r	.	2.g\	no-	2.b-\	.
4AA/	.	.	.	.	.	.	.
4BB-X/	.	.	.	.	.	.	.
!LO:TX:t=P:problem:kreska pseudotaktowa	!	!	!	!	!	!	!
4C/	.	.	.	8f\L	.	8a/L	.
!	!	!	!	!LO:TX:t=P:problem:kreska pseudotaktowa	!	!	!
.	.	.	.	8e\J	.	8g/J	.
=74	=74	=74	=74	=74	=74	=74	=74
4D/	.	4A/	mi-	2d\	.	4f/	-re
4E/	.	4G/	-se-	.	.	4g/	.
4F/	.	4F/	-re-	1f\	.	4a/	.
!	!	!	!	!	!	!	!
4D/	.	4D/	-re	.	.	4f/	.
1C	.	2G/	no-	.	.	1g	no-
.	.	2c\	.	2e\	.	.	.
=75-	=75	=75-	=75	=75-	=75	=75-	=75
!LO:TX:t=P:problem:kreska pseudotaktowa	!	!LO:TX:t=P:problem:kreska pseudotaktowa	!	!LO:TX:t=P:problem:kreska pseudotaktowa	!	!LO:TX:t=P:problem:kreska pseudotaktowa	!
1F,	-bis.	1A	.	1f	-bis.	1a	-bis.
!	!	!	!	!	!	!LO:PB:g=original	!
!	!	!LO:TX:t=P:problem:kreska pseudotaktowa	!	!	!	!	!
2.BB-/	Quo-	1D	-bis	2r	.	2.f/	Quo-
.	.	.	.	2d\	Tu	.	.
!	!	!	!	!	!	!LO:TX:t=P:problem:kreska pseudotaktowa	!
4BB-/	-ni-	.	.	.	.	4g/	-ni-
=76-	=76	=76	=76	=76-	=76	=76	=76
2AA,/	-am	2.F/	Quo-	2c\	so-	2a\	-am
!	!	!	!	!LO:TX:t=P:problem:kreska pseudotaktowa	!	!LO:TX:t=P:problem:kreska pseudotaktowa	!
2BB-/	Tu	.	.	2d\	-lus	2f/	tu
.	.	4F/	-ni-	.	.	.	.
!	!	!LO:TX:t=P:problem:kreska pseudotaktowa	!	!	!	!	!
4GG/	so-	1G	-am	4B-/	San-	1b-	so-
4AA/	.	.	.	4c/	.	.	.
4BB-/	.	.	.	4d/	.	.	.
!LO:TX:t=P:problem:kreska pseudotaktowa	!	!	!	!	!	!	!
4C/	.	.	.	4e/	.	.	.
!LO:PB:g=original	!	!	!	!	!	!	!
=77	=77	=77	=77	=77	=77	=77-	=77
2D/	-lus	2F/	Tu	2f\	.	2a\	-l(us)
!	!	!	!	!	!	!LO:TX:t=P:problem:kreska pseudotaktowa	!
2AA/	.	2E/	.	2c\	.	2cc\	San-
!	!	!	!	!LO:TX:t=P:problem:kreska pseudotaktowa	!	!	!
2BB-/	San-	4D/	so-	1B-	-ctus	2f/	.
.	.	4C/	.	.	.	.	.
4AA/	.	4D/	.	.	.	1b-\	.
!LO:TX:t=P:problem:kreska pseudotaktowa	!	!	!	!	!	!	!
4GG/	.	4E/	.	.	.	.	.
=78	=78	=78-	=78	=78	=78	=78-	=78
4FF/	-ct(us)	1F	-lus	2r	.	.	.
4FF/	Tu	.	.	.	.	.	.
!	!	!	!	!	!	!LO:TX:t=P:problem:kreska pseudotaktowa	!
2.F\	so-	.	.	2.a\	So-	2a,\	-ct(us)
!	!	!LO:TX:t=P:problem:kreska pseudotaktowa	!	!	!	!	!
.	.	1A	S(an)-	.	.	2r	.
4E/	.	.	.	4g\	.	.	.
4D/	.	.	.	4f\	.	2.dd\	So-
!LO:TX:t=P:problem:kreska pseudotaktowa	!	!	!	!LO:TX:t=P:problem:kreska pseudotaktowa	!	!	!
!	!	!	!	!LO:SIC:v:custos:d	!	!	!
4C/	.	.	.	4e\	.	.	.
!	!	!	!	!LO:LB:g=original	!	!	!
=79	=79	=79	=79	=79	=79	=79	=79
2BB-/	.	2D/	-ct(us)	2d\	.	.	.
.	.	.	.	.	.	4cc\	.
!	!	!	!	!	!	!	!
2AA/	-lus	2A\	Tu	2f\	-lus	4b-\	.
!	!	!	!	!	!	!LO:TX:t=P:problem:kreska pseudotaktowa	!
.	.	.	.	.	.	4a\	.
4GG/	Do-	1.B-X	so-	2g\	Do-	2b-\	.
4AA/	.	.	.	.	.	.	.
(4BB-/	.	.	.	4f\	.	4a\	.
!LO:TX:t=P:problem:kreska pseudotaktowa	!	!	!	!LO:TX:t=P:problem:kreska pseudotaktowa	!	!LO:TX:t=P:problem:kreska pseudotaktowa	!
4C/)	.	.	.	4e\	.	4g\	.
=80	=80	=80-	=80	=80	=80	=80	=80
4D\	.	.	.	2d\	.	4f/	.
4E\	.	.	.	.	.	4g/	-lus
!	!	!LO:TX:t=P:problem:kreska pseudotaktowa	!	!	!	!LO:TX:t=P:problem:kreska pseudotaktowa	!
4F\	.	2A\	-lus	2cnX\	-mi-	2a\	.
4F\	-mi-	.	.	.	.	.	.
.	.	.	.	.	.	.	.
!LO:TX:t=P:problem:kreska pseudotaktowa	!	!	!	!LO:TX:t=P:problem:kreska pseudotaktowa	!	!	!
1BB-	-n(us)	2G/	Do-	1d	-n(us)	2.b-\	Do-
.	.	1F/	.	.	.	.	.
!	!	!	!	!	!	!LO:TX:t=P:problem:kreska pseudotaktowa	!
.	.	.	.	.	.	4b-\	-mi-
=81	=81	=81-	=81	=81	=81	=81	=81
!	!	!	!	!	!	!LO:TX:t=P:problem:kreska pseudotaktowa	!
1C	Tu	.	.	2r	.	1g	-n(us)
.	.	2E/	-mi-	2e\	Tu	.	.
!	!	!LO:TX:t=P:problem:kreska pseudotaktowa	!	!LO:TX:t=P:problem:kreska pseudotaktowa	!	!	!
2FF/	so-	1F	-n(us)	1c	so-	2r	.
!	!	!	!	!	!	!LO:TX:t=P:problem:kreska pseudotaktowa	!
2.F\	.	.	.	.	.	2cc\	Tu
=82-	=82	=82	=82	=82	=82	=82	=82
.	.	2r	.	2.f\	.	2a\	so-
4E\	.	.	.	.	.	.	.
!	!	!	!	!	!	!LO:TX:t=P:problem:kreska pseudotaktowa	!
4D/	.	2c\	Tu	.	.	2cc\	-lus
!	!	!	!	!	!	!	!
4C/	.	.	.	4e\	.	.	.
2D/	.	2F/	so-	2d\	.	2b-\	.
!LO:TX:t=P:problem:kreska pseudotaktowa	!	!	!	!LO:TX:t=P:problem:kreska pseudotaktowa	!	!	!
2C/	-lus	2c\	-lus	2e\	.	4a\	al-
!	!	!	!	!	!	!LO:TX:t=P:problem:kreska pseudotaktowa	!
.	.	.	.	.	.	4g\	.
=83	=83	=83-	=83	=83	=83	=83	=83
2BB-/	so-	2.d\	al-	2.f\	.	4f/	.
.	.	.	.	.	.	4g/	.
!	!	!	!	!	!	!LO:TX:t=P:problem:kreska pseudotaktowa	!
2FF/	.	.	.	.	.	2a\	.
!	!	!LO:TX:t=P:problem:kreska pseudotaktowa	!	!	!	!	!
!	!	!LO:SIC:v:t=custos:B-	!	!	!	!	!
.	.	4c\	.	4e\	.	.	.
!	!	!LO:LB:g=original	!	!	!	!	!
2GG/	.	2B-\	.	2d\	-lus	4g/	.
.	.	.	.	.	.	4f/	.
!LO:TX:t=P:problem:kreska pseudotaktowa	!	!LO:TX:t=P:problem:kreska pseudotaktowa	!	!LO:TX:t=P:problem:kreska pseudotaktowa	!	!	!
2AA/	-lus	2A\	.	2c\	al-	2.f/	.
=84	=84	=84	=84	=84	=84	=84-	=84
2BB-/	al-	2.G/	-tiſ-	2d\	-tiſ-	.	.
.	.	.	.	.	.	8e/L	-tiſ-
.	.	.	.	.	.	8d/J	.
4C/	-tiſ-	.	.	2c\	-si-	4e/	-si-
!LO:TX:t=P:problem:kreska pseudotaktowa	!	!	!	!	!	!	!
4C/	-si-	4G/	-si-	.	.	4e/	.
!	!	!	!	!	!	!LO:TX:t=P:problem:kreska pseudotaktowa	!
2F,\	-m(us)	2F/	-m(us)	2c/	-m(us)	1f	-mus
!	!	!	!	!LO:TX:t=P:problem:kreska pseudotaktowa	!	!	!
2.B-\	Je-	4D/	Je-	2r	.	.	.
!	!	!LO:TX:t=P:problem:kreska pseudotaktowa	!	!	!	!	!
.	.	4E/	.	.	.	.	.
!	!	!	!	!	!	!LO:LB:g=original	!
=85-	=85	=85	=85	=85	=85	=85	=85
.	.	4F/	.	2.f\	JE-	4dd\	Je-
8A\L	.	4G/	.	.	.	8cc\L	.
8G\J	.	.	.	.	.	8b-\J	.
4F\	.	4A\	.	.	.	4a/	.
!	!	!	!	!	!	!	!
4G\	.	4B-\	.	8e\L	.	8g/L	.
!	!	!	!	!	!	!LO:TX:t=P:problem:kreska pseudotaktowa	!
.	.	.	.	8d\J	.	8f/J	.
2A\	-su	2c\	-su	2.c\	.	2e/	.
!LO:TX:t=P:problem:kreska pseudotaktowa	!	!	!	!	!	!LO:TX:t=P:problem:kreska pseudotaktowa	!
2B-\	.	4B-\	.	.	.	2d/	-su
!	!	!LO:TX:t=P:problem:kreska pseudotaktowa	!	!LO:TX:t=P:problem:kreska pseudotaktowa	!	!	!
.	.	4A\	.	4d\	-SU	.	.
!LO:LB:g=original	!	!	!	!	!	!	!
=86	=86	=86	=86	=86	=86	=86	=86
!	!	!	!	!	!	!	!
2c\	Chri-	1G	x-	4e\	chri-	2r	.
.	.	.	.	2f\	.	.	.
2C/	.	.	.	.	.	2cc\	x-
.	.	.	.	4e\	.	.	.
!LO:TX:t=P:problem:kreska pseudotaktowa	!	!LO:TX:t=P:problem:kreska pseudotaktowa	!	!	!	!LO:TX:t=P:problem:kreska pseudotaktowa	!
[1F	-ste	1F	-te	2f,\	-ste	1a	-te
!	!	!	!	!LO:TX:t=P:problem:kreska pseudotaktowa	!	!	!
.	.	.	.	2c\	Cum	.	.
=87	=87	=87	=87	=87	=87	=87	=87
2F]	.	2r	.	4f\	San-	1r	.
.	.	.	.	4g\	.	.	.
!LO:TX:t=P:problem:kreska pseudotaktowa	!	!	!	!	!	!	!
2F\	Cum	2c\	Cum	4f\	.	.	.
!	!	!	!	!LO:TX:t=P:problem:kreska pseudotaktowa	!	!	!
!	!	!	!	!LO:SIC:v:t=custos:d	!	!	!
.	.	.	.	4e\	.	.	.
!	!	!	!	!LO:LB:g=original	!	!	!
4B-\	San-	4d\	San-	2d\	-cto	2r	.
4c\	.	4e\	.	.	.	.	.
!	!	!	!	!	!	!LO:TX:t=P:problem:kreska pseudotaktowa	!
4B-\	.	4d\	.	2d\	Spi-	2f/	Cum
!	!	!LO:TX:t=P:problem:kreska pseudotaktowa	!	!	!	!	!
4A\	.	4c\	.	.	.	.	.
=88-	=88	=88	=88	=88-	=88	=88	=88
2G\	.	2B-\	-cto	2g\	.	4b-\	San-
.	.	.	.	.	.	4cc\	.
4G,\	-cto	2B-\	.	4g\	-ri-	4b-\	.
!LO:TX:t=P:problem:kreska pseudotaktowa	!	!	!	!LO:TX:t=P:problem:kreska pseudotaktowa	!	!	!
4G\	cum	.	.	4f\	.	4a\	.
.	.	.	.	.	.	.	.
!	!	!	!	!LO:TX:t=P:problem:kreska pseudotaktowa	!	!	!
2E\	S(an)-	2.c\	Spi-	1e	-tu	2g\	.
!	!	!	!	!	!	!LO:TX:t=P:problem:kreska pseudotaktowa	!
2C/	.	.	.	.	.	2g\	-cto
.	.	4c\	-ri-	.	.	.	.
=89-	=89	=89-	=89	=89	=89	=89	=89
!	!	!LO:TX:t=P:problem:kreska pseudotaktowa	!	!	!	!	!
4F\	-cto	1F	-tu	2r	.	2.a\	Spi-
4G\	.	.	.	.	.	.	.
!	!	!	!	!LO:TX:t=P:problem:kreska pseudotaktowa	!	!	!
4F\	.	.	.	2c\	Cum	.	.
!	!	!	!	!	!	!LO:TX:t=P:problem:kreska pseudotaktowa	!
4E\	.	.	.	.	.	4a\	-ri-
!	!	!	!	!	!	!LO:TX:t=P:problem:kreska pseudotaktowa	!
2D\	San-	2r	.	4f\	San-	1dd	-tu
.	.	.	.	4g\	.	.	.
!LO:TX:t=P:problem:kreska pseudotaktowa	!	!	!	!	!	!	!
2D\	-cto	2F/	cum	4f\	.	.	.
.	.	.	.	4e\	.	.	.
=90	=90	=90	=90	=90-	=90	=90	=90
2.G\	Spi-	4B-\	San-	2d\	.	2r	.
.	.	4c\	.	.	.	.	.
!	!	!	!	!LO:TX:t=P:problem:kreska pseudotaktowa	!	!LO:TX:t=P:problem:kreska pseudotaktowa	!
.	.	4B-\	.	2d\	-cto	2b-X\	Cum
!	!	!LO:TX:t=P:problem:kreska pseudotaktowa	!	!	!	!	!
4G\	-ri-	4A\	.	.	.	.	.
!LO:TX:t=P:problem:kreska pseudotaktowa	!	!	!	!	!	!	!
1C,	-tu	2G/	.	2.e\	Spi-	4cc\	.
.	.	.	.	.	.	4dd\	.
.	.	2G/	-cto	.	.	4cc\	San-
!	!	!	!	!	!	!LO:TX:t=P:problem:kreska pseudotaktowa	!
.	.	.	.	4e\	-ri-	4b-\	.
=91	=91	=91-	=91	=91-	=91	=91	=91
!	!	!	!	!	!	!	!
1FF,	Cum	2.A/	Spi-	2f,\	-tu	2a\	.
!	!	!	!	!LO:TX:t=P:problem:kreska pseudotaktowa	!	!LO:TX:t=P:problem:kreska pseudotaktowa	!
.	.	.	.	2f\	Cum	2a\	-cto
.	.	4A/	-ri-	.	.	.	.
!	!	!LO:TX:t=P:problem:kreska pseudotaktowa	!	!	!	!	!
4BB-/	San-	1F	-tu	4d\	San-	2.b-\	Spi-
4C/	.	.	.	4e\	.	.	.
4BB-/	.	.	.	4d\	.	.	.
!	!	!	!	!	!	!LO:TX:t=P:problem:kreska pseudotaktowa	!
4AA/	.	.	.	4c\	.	4b-\	-ri-
=92	=92	=92	=92	=92-	=92	=92	=92
2GG/	.	2r	.	2B-/	.	2b-\	-tu
!	!	!LO:TX:t=P:problem:kreska pseudotaktowa	!	!LO:TX:t=P:problem:kreska pseudotaktowa	!	!LO:TX:t=P:problem:kreska pseudotaktowa	!
2GG/	-cto	2d\	cum	2B-/	-cto	2r	.
!	!	!LO:LB:g=original	!	!	!	!	!
2.C/	Spi-	4c\	San-	2.en\	Spi-	2r	.
.	.	4d\	.	.	.	.	.
!	!	!	!	!	!	!LO:TX:t=P:problem:kreska pseudotaktowa	!
.	.	4c\	.	.	.	2g\	Cum
!LO:TX:t=P:problem:kreska pseudotaktowa	!	!LO:TX:t=P:problem:kreska pseudotaktowa	!	!	!	!	!
4C/	-ri-	4B-\	.	4e\	-ri-	.	.
=93	=93	=93	=93	=93-	=93	=93	=93
2F\	-tu	2A\	.	2f\	-tu	4a\	San-
.	.	.	.	.	.	4b-\	.
!	!	!LO:TX:t=P:problem:kreska pseudotaktowa	!	!LO:TX:t=P:problem:kreska pseudotaktowa	!	!	!
2D\	Cum	2d\	-cto	2r	.	4a\	.
.	.	.	.	.	.	4g/	.
4G\	San-	4B-\	San-	2r	.	2g\	-cto
4A\	.	4c\	.	.	.	.	.
4G\	.	4B-\	.	2d\	Cum	4dd,\	.
!	!	!	!	!	!	!LO:TX:t=P:problem:kreska pseudotaktowa	!
4F\	.	4A\	.	.	.	4dd\	Cum
!	!	!	!	!	!	!LO:LB:g=original	!
=94-	=94	=94-	=94	=94-	=94	=94	=94
2E\	.	2G/	.	4g\	San-	4cc\	San-
.	.	.	.	4f\	.	4dd\	.
!LO:TX:t=P:problem:kreska pseudotaktowa	!	!LO:TX:t=P:problem:kreska pseudotaktowa	!	!	!	!	!
2E\	-cto	2G/	-cto	4e\	.	4cc\	.
!	!	!	!	!LO:TX:t=P:problem:kreska pseudotaktowa	!	!LO:TX:t=P:problem:kreska pseudotaktowa	!
.	.	.	.	4d\	.	4b-\	.
2.F\	San-	2.A\	San-	2c\	.	2a\	.
!	!	!	!	!	!	!LO:TX:t=P:problem:kreska pseudotaktowa	!
.	.	.	.	2c\	-cto	2f/	.
4G\	.	4B-\	.	.	.	.	.
=95-	=95	=95-	=95	=95-	=95	=95	=95
2A\	-cto	2c\	.	4c\	.	2g\	-cto
.	.	.	.	8d\L	San-	.	.
.	.	.	.	8e\J	.	.	.
!LO:TX:t=P:problem:kreska pseudotaktowa	!	!	!	!	!	!	!
!LO:SIC:v:t=custos:G	!	!	!	!	!	!	!
2F\	.	2A,\	-cto	4f\	.	2a\	.
!	!	!	!	!LO:TX:t=P:problem:kreska pseudotaktowa	!	!	!
!	!	!	!	!LO:SIC:v:t=custos:d	!	!	!
.	.	.	.	4e\	-cto	.	.
!	!	!	!	!LO:LB:g=original	!	!	!
2G\	Spi-	2Bn\	Spi-	2.d\	Spi-	2.g\	Spi-
!	!	!	!	!	!	!	!
2GG/	-ri-	2B\	-ri-	.	.	.	.
.	.	.	.	4d\	-ri-	4g\	-ri-
=96	=96	=96	=96	=96	=96	=96	=96
*M3/2	*	*M3/2	*	*M3/2	*	*M3/2	*
1C,	-tu	1c,	-tu	1e	-tu	1g	-tu
!LO:TX:t=P:problem:kreska pseudotaktowa	!	!LO:TX:t=P:problem:kreska pseudotaktowa	!	!LO:TX:t=P:problem:kreska pseudotaktowa	!	!LO:TX:t=P:problem:kreska pseudotaktowa	!
2C/	in	2c\	in	2e\	in	2g\	in
=97	=97	=97	=97	=97	=97	=97	=97
2F\	glo-	2c\	glo-	2f\	glo-	2a\	glo-
4F\	-ri-	4c\	-ri-	4f\	-ri-	4a\	-ri-
4C/	-a	4c\	-a	4e\	-a	4g\	-a
4D/	De-	4A/	De-	4d\	De-	4f/	De-
!LO:TX:t=P:problem:kreska pseudotaktowa	!	!LO:TX:t=P:problem:kreska pseudotaktowa	!	!	!	!LO:TX:t=P:problem:kreska pseudotaktowa	!
4AA/	-i	4A/	-i	4c/	-i	4e/	-i
=98	=98	=98	=98	=98-	=98	=98	=98
2.BB-/	P(at)-	2.F/	Pa-	2.d\	Pa-	2.d/	Pa-
4GG/	-ris	4B-\	-tris	4d\	-tris	4g/	-tris
!LO:TX:t=P:problem:kreska pseudotaktowa	!	!LO:TX:t=P:problem:kreska pseudotaktowa	!	!LO:TX:t=P:problem:kreska pseudotaktowa	!	!LO:TX:t=P:problem:kreska pseudotaktowa	!
2D\	a-	2A\	a-	2d\	a-	2f#X/	a-
=99	=99	=99	=99	=99	=99	=99	=99
1GG,	-men	1G,	-men	1d,	-men	1g,	-men
*	*	*	*	*	*ij	*	*
!LO:TX:t=P:problem:kreska pseudotaktowa	!	!LO:TX:t=P:problem:kreska pseudotaktowa	!	!LO:TX:t=P:problem:kreska pseudotaktowa	!	!LO:TX:t=P:problem:kreska pseudotaktowa	!
2G\	a-	2G/	in	2g\	in	2dd\	in
=100	=100	=100	=100	=100	=100	=100	=100
2.c\	.	2c\	glo-	2e\	glo-	2cc\	glo-
.	.	4c\	-ri-	4e\	-ri-	4cc\	-ri-
4A\	.	4c\	-a	4f\	-a	4cc\	-a
4B-X\	.	4G/	De-	4d\	De-	4b-\	De-
!LO:TX:t=P:problem:kreska pseudotaktowa	!	!	!	!LO:TX:t=P:problem:kreska pseudotaktowa	!	!LO:TX:t=P:problem:kreska pseudotaktowa	!
4G\	.	4B-/	-i	4e\	-i	4b-\	-i
=101	=101	=101-	=101	=101	=101	=101	=101
2.A\	.	2.c\	P(a)-	2.c\	Pa-	2.a\	Pa-
4F\	.	4c\	-(t)ris	4f\	-tris	4a\	-tris
!	!	!LO:TX:t=P:problem:kreska pseudotaktowa	!	!	!	!	!
!LO:TX:t=P:problem:kreska pseudotaktowa	!	!LO:SIC:v:t=custos:c	!	!LO:TX:t=P:problem:kreska pseudotaktowa	!	!LO:TX:t=P:problem:kreska pseudotaktowa	!
2G\	.	2Bn\	a-	2d\	a-	2g\	a-
!	!	!LO:LB:g=original	!	!	!	!	!
=102	=102	=102	=102	=102	=102	=102	=102
!	!	!	!	!	!	!LO:TX:t=P:problem:kreska pseudotaktowa	!
2C,/	-men	1c	-men	2e,\	-men	1.g	-men
*	*	*	*	*	*Xij	*	*
2C/	a-	.	.	2e\	A-	.	.
!LO:TX:t=P:problem:kreska pseudotaktowa	!	!LO:TX:t=P:problem:kreska pseudotaktowa	!	!LO:TX:t=P:problem:kreska pseudotaktowa	!	!	!
2BB-/	.	2r	.	2d\	.	.	.
=103	=103	=103	=103	=103	=103	=103	=103
!	!	!LO:N:vis=1	!	!	!	!	!
2AA/	.	1.r	.	2c\	.	2cc\	A-
!	!	!	!	!LO:TX:t=P:problem:kreska pseudotaktowa	!	!	!
2GG/	.	.	.	[<1f	.	2b-\	.
!	!	!	!	!	!	!LO:TX:t=P:problem:kreska pseudotaktowa	!
2FF/	.	.	.	.	.	2a\	.
=104-	=104	=104-	=104	=104	=104	=104	=104
!LO:TX:t=P:problem:kreska pseudotaktowa	!	!	!	!	!	!	!
1.C	.	2r	.	1f]	.	1.g	.
.	.	2c\	a-	.	.	.	.
!	!	!LO:TX:t=P:problem:kreska pseudotaktowa	!	!	!	!	!
.	.	2B-\	.	2e,\	-men	.	.
=105	=105	=105	=105	=105-	=105	=105-	=105
!	!	!	!	!LO:TX:t=P:problem:kreska pseudotaktowa	!	!LO:TX:t=P:problem:kreska pseudotaktowa	!
2FF,/	-men	1A	.	[<1.f	A-	1.a	-men
2F\	a-	.	.	.	.	.	.
!	!	!LO:TX:t=P:problem:kreska pseudotaktowa	!	!	!	!	!
2E-X\	.	2G/	.	.	.	.	.
!	!	!	!	!	!	!LO:LB:g=original	!
=106-	=106	=106	=106	=106	=106	=106	=106
!	!	!	!	!	!	!LO:TX:t=P:problem:kreska pseudotaktowa	!
2D/	.	1F	-men	2f]	.	1.r	.
2C/	.	.	.	2e-X\	.	.	.
!LO:TX:t=P:problem:kreska pseudotaktowa	!	!	!	!	!	!	!
2BB-/	.	[<2B-\	a-	2d\	.	.	.
=107	=107	=107	=107	=107-	=107	=107	=107
!	!	!	!	!LO:TX:t=P:problem:kreska pseudotaktowa	!	!	!
1.F	.	1B-\]	.	1.c	.	2r	.
.	.	.	.	.	.	2ff\	A-
!	!	!	!	!	!	!LO:TX:t=P:problem:kreska pseudotaktowa	!
.	.	2A\	.	.	.	2ee-X\	.
!	!	!	!	!LO:LB:g=original	!	!	!
=108-	=108	=108	=108	=108	=108	=108	=108
!	!	!LO:TX:t=P:problem:kreska pseudotaktowa	!	!	!	!	!
2BB-,/	-men	1.B-	-men	2d\	.	1dd	.
2B-\	a-	.	.	2e-X\	.	.	.
!LO:TX:t=P:problem:kreska pseudotaktowa	!	!	!	!	!	!LO:TX:t=P:problem:kreska pseudotaktowa	!
!LO:SIC:v:custos:G	!	!	!	!	!	!	!
2A-X\	.	.	.	2f\	.	2cc\	.
!LO:LB:g=original	!	!	!	!	!	!	!
=109	=109	=109	=109	=109	=109	=109	=109
1G	.	2r	.	1g	-men	2b-\	.
.	.	2B-\	a-	.	.	2cc\	.
!	!	!LO:TX:t=P:problem:kreska pseudotaktowa	!	!LO:TX:t=P:problem:kreska pseudotaktowa	!	!	!
2F\	.	2A\	.	2r	.	2dd\	.
=110-	=110	=110	=110	=110	=110	=110-	=110
!	!	!	!	!	!	!LO:TX:t=P:problem:kreska pseudotaktowa	!
1E-X	.	2G/	.	2r	.	1.b-	-men
.	.	2A\	.	2g\	A-	.	.
!LO:TX:t=P:problem:kreska pseudotaktowa	!	!LO:TX:t=P:problem:kreska pseudotaktowa	!	!LO:TX:t=P:problem:kreska pseudotaktowa	!	!	!
2D/	.	2B-\	.	2f\	.	.	.
=111	=111	=111	=111	=111	=111	=111	=111
2C,/	-men	[1.c	.	1.e-X	.	2e-X/	a-
2C/	a-	.	.	.	.	2f/	.
!LO:TX:t=P:problem:kreska pseudotaktowa	!	!	!	!	!	!LO:TX:t=P:problem:kreska pseudotaktowa	!
2BB-/	.	.	.	.	.	2g/	.
=112	=112	=112	=112	=112-	=112	=112	=112
!	!	!	!	!LO:TX:t=P:problem:kreska pseudotaktowa	!	!	!
!	!	!	!	!	!	!LO:TX:a:t=P:problem:♮ above	!
2AA/	.	2c]	.	1.e-X	-men	2an\	.
2GG/	.	2B-\	.	.	.	2b-\	.
!LO:TX:t=P:problem:kreska pseudotaktowa	!	!LO:TX:t=P:problem:kreska pseudotaktowa	!	!	!	!LO:TX:t=P:problem:kreska pseudotaktowa	!
2FF/	.	2A\	.	.	.	2cc\	.
=113	=113	=113	=113	=113	=113	=113	=113
!LO:TX:t=P:problem:kreska pseudotaktowa	!	!	!	!	!	!LO:TX:t=P:problem:kreska pseudotaktowa	!
[1.BB-X	.	[<1.B-	-men	2r	.	1.b-	-men
.	.	.	.	2f\	A-	.	.
!	!	!	!	!LO:TX:t=P:problem:kreska pseudotaktowa	!	!	!
.	.	.	.	2e-X\	.	.	.
=114	=114	=114	=114	=114	=114	=114	=114
!LO:TX:t=P:problem:kreska pseudotaktowa	!	!LO:TX:t=P:problem:kreska pseudotaktowa	!	!	!	!	!
1.BB-_	.	1.B-]	.	1d	.	2r	.
.	.	.	.	.	.	2ff\	A-
!	!	!	!	!LO:TX:t=P:problem:kreska pseudotaktowa	!	!LO:TX:t=P:problem:kreska pseudotaktowa	!
.	.	.	.	2c/	.	2ee-X\	.
=115	=115	=115	=115	=115	=115	=115	=115
!LO:TX:t=P:problem:kreska pseudotaktowa	!	!	!	!LO:TX:t=P:problem:kreska pseudotaktowa	!	!	!
1.BB-_	.	2r	.	1.B-	-men	1dd	.
.	.	2f\	a-	.	.	.	.
!	!	!LO:TX:t=P:problem:kreska pseudotaktowa	!	!	!	!	!
.	.	2e-X\	.	.	.	2cc\	.
=116	=116	=116	=116	=116	=116	=116-	=116
!LO:TX:t=P:problem:kreska pseudotaktowa	!	!	!	!	!	!LO:TX:t=P:problem:kreska pseudotaktowa	!
1.BB-_	.	1d	.	2r	.	1.b-	-men
.	.	.	.	2f\	A-	.	.
!	!	!	!	!LO:TX:t=P:problem:kreska pseudotaktowa	!	!	!
.	.	2c\	.	2e-X\	.	.	.
=117	=117	=117-	=117	=117	=117	=117	=117
!LO:TX:t=P:problem:kreska pseudotaktowa	!	!LO:TX:t=P:problem:kreska pseudotaktowa	!	!	!	!	!
1.BB-_	.	1.B-	-men	2d\	.	2r	.
*	*	*	*	*	*	*	*ij
.	.	.	.	2B-/	.	2dd\	A-
!	!	!	!	!LO:TX:t=P:problem:kreska pseudotaktowa	!	!	!
.	.	.	.	2f\	.	2cc\	.
!	!	!LO:LB:g=original	!	!	!	!	!
=118	=118	=118	=118	=118	=118	=118	=118
!LO:TX:t=P:problem:kreska pseudotaktowa	!	!	!	!	!	!	!
1.BB-_	.	2r	.	1.d	-men	1b-	.
.	.	2d\	a-	.	.	.	.
!	!	!LO:TX:t=P:problem:kreska pseudotaktowa	!	!	!	!LO:TX:t=P:problem:kreska pseudotaktowa	!
.	.	2c\	.	.	.	2f/	-men
*	*	*	*	*	*	*	*Xij
=119	=119	=119	=119	=119-	=119	=119	=119
!LO:TX:t=P:problem:kreska pseudotaktowa	!	!	!	!	!	!LO:N:vis=1	!
1.BB-]	.	1B-	.	2r	.	1.r	.
.	.	.	.	2g\	A-	.	.
!	!	!	!	!LO:TX:t=P:problem:kreska pseudotaktowa	!	!	!
.	.	2A\	.	2f\	.	.	.
=120	=120	=120	=120	=120	=120	=120-	=120
!LO:TX:t=P:problem:kreska pseudotaktowa	!	!LO:TX:t=P:problem:kreska pseudotaktowa	!	!	!	!	!
[1.C	.	1.G	-men	2en\	.	2r	.
.	.	.	.	2d\	.	2cc\	a-
!	!	!	!	!LO:TX:t=P:problem:kreska pseudotaktowa	!	!LO:TX:t=P:problem:kreska pseudotaktowa	!
.	.	.	.	2c\	.	2b-\	.
=121	=121	=121	=121	=121	=121	=121	=121
!LO:TX:t=P:problem:kreska pseudotaktowa	!	!	!	!	!	!	!
!	!	!LO:N:vis=1	!	!	!	!	!
1.C_	.	1.r	.	2f\	.	2a\	.
.	.	.	.	2e\	.	2g\	.
!	!	!	!	!	!	!LO:TX:t=P:problem:kreska pseudotaktowa	!
.	.	.	.	2d\	.	2f/	.
!	!	!	!	!	!	!LO:LB:g=original	!
=122	=122	=122-	=122	=122	=122	=122	=122
!LO:TX:t=P:problem:kreska pseudotaktowa	!	!	!	!	!	!LO:TX:t=P:problem:kreska pseudotaktowa	!
1.C_	.	2r	.	1en	.	1.g	.
.	.	2c\	a-	.	.	.	.
!	!	!LO:TX:t=P:problem:kreska pseudotaktowa	!	!	!	!	!
.	.	2B-\	.	2d\	.	.	.
=123	=123	=123	=123	=123-	=123	=123	=123
!LO:TX:t=P:problem:kreska pseudotaktowa	!	!	!	!	!	!	!
1.C_	.	2A\	.	2c\	.	2a\	.
!	!	!	!	!LO:TX:t=P:problem:kreska pseudotaktowa	!	!	!
.	.	2G/	.	[<1f	-men	2b-\	.
!	!	!LO:TX:t=P:problem:kreska pseudotaktowa	!	!	!	!LO:TX:t=P:problem:kreska pseudotaktowa	!
.	.	2F/	.	.	.	2cc\	.
=124	=124	=124	=124	=124	=124	=124	=124
1.C]	.	1.c	.	1f]	.	2cc\	.
.	.	.	.	.	.	1g	.
.	.	.	.	2e\	/a-	.	.
!	!	!	!	!	!	!LO:LB:g=original	!
=125-	=125	=125-	=125	=125	=125	=125	=125
!	!	!LO:TX:b:t=Sanct(us) Vertat(ur)	!	!LO:TX:t=0	!	!LO:TX:t=0	!
0.F;	-men.	0.c;	-men.	0.f;	-men/	0.a;	-men.
==	==	==	==	==	==	==	==
*-	*-	*-	*-	*-	*-	*-	*-
!!!system-decoration: [(s1,s2,s3,s4)]
!!!RDF**kern: > = above
!!!RDF**kern: < = below
!!!ENC: Kamil Watkowski
!!!END: 2021-08-06
